static/assets/images/exchanges/bitcow.svg

<svg width="257" height="256" viewBox="0 0 257 256" fill="none" xmlns="http://www.w3.org/2000/svg">
<path fill-rule="evenodd" clip-rule="evenodd" d="M74.5873 68.1967V89.1803H44.1221V104.918H59.8799H74.5873V150.033H105.053V135.344H119.76V89.1803H134.467V74.4918H142.871H89.2946V59.8033H74.5873V52.459V68.1967ZM89.2946 135.344H105.053V104.918H89.2946V135.344ZM179.64 179.41H164.932V195.148V187.803V179.41H179.64V195.148H164.932V209.836H150.225V224.525H195.398V209.836H210.105V195.148H195.398V179.41H179.64V142.689V104.918V179.41ZM224.812 157.377V164.721H210.105C201.701 164.721 198.549 164.721 202.751 164.721H210.105V179.41V195.148H224.812V173.115C224.977 167.87 224.977 162.622 224.812 157.377ZM74.5873 224.525V232.918V240.262V224.525H82.9915H89.2946V240.262H119.76V224.525H105.053V209.836H74.5873V224.525Z" fill="#808080"/>
<path fill-rule="evenodd" clip-rule="evenodd" d="M89.2946 14.6885H59.8799V29.377H52.5263H44.1221V36.7213V44.0656H36.7684H29.4147V52.459V59.8033H14.7074V89.1803H0V164.721H14.7074V195.148H29.4147V209.836H44.1221V218.229V224.525H59.8799V240.262H74.5873V224.525H59.8799V179.41H44.1221V104.918H29.4147V89.1803V74.4918H44.1221H59.8799V59.8033H74.5873V44.0656H164.932V59.8033H179.64V74.4918H210.105V104.918H224.812V135.344V179.41V195.148H210.105V209.836H195.398V224.525H164.932V240.262H89.2946V247.607V256H164.932V240.262H195.398V224.525H210.105V209.836H224.812V195.148H240.57V164.721H256.328V125.902C256.328 125.902 257.379 88.1311 256.328 89.1803H240.57V59.8033H224.812V44.0656H218.509H210.105V29.377H202.751H195.398V14.6885H164.932V0H89.2946V14.6885Z" fill="#FFA100"/>
<path fill-rule="evenodd" clip-rule="evenodd" d="M105.053 59.8033H134.467V44.0656H105.053V59.8033ZM203.802 104.918H195.398V150.033H224.812V104.918H218.509H203.802ZM44.1221 150.033H59.8799V119.607H44.1221V150.033Z" fill="#FFD775"/>
<path fill-rule="evenodd" clip-rule="evenodd" d="M59.8799 179.41H68.2841H74.5873V195.148H164.932V179.41H179.64V164.721H164.932V150.033H59.8799V179.41ZM89.2946 164.721V174.164V179.41H105.053V164.721H97.6988H89.2946ZM119.76 179.41H134.467V164.721H119.76V179.41Z" fill="#ED9B9D"/>
<path fill-rule="evenodd" clip-rule="evenodd" d="M150.225 74.4918H134.467V89.1803H119.76V135.344H105.053V150.033H164.932V164.721H179.64V104.918H195.398V89.1803H164.932V59.8033H150.225V74.4918ZM134.467 135.344H150.225V104.918H134.467V135.344ZM195.398 179.41V195.148H210.105V164.721H195.398V179.41ZM105.053 224.525H112.406H119.76V240.262H164.932V224.525H150.225V209.836H105.053V224.525Z" fill="white"/>
<path fill-rule="evenodd" clip-rule="evenodd" d="M74.5873 52.459V59.8033H89.2946V74.4918H108.204H134.467H150.225V59.8033H164.932V44.0656H134.467V59.8033H105.053V44.0656H74.5873V52.459ZM59.8799 59.8033V68.1967V74.4918H29.4147V104.918H44.1221V119.607H59.8799V150.033H44.1221V179.41H59.8799V224.525H74.5873V240.262H89.2946V224.525H82.9915H74.5873V209.836H164.932V195.148H179.64V179.41H195.398V164.721H224.812V150.033H195.398V104.918H210.105V74.4918H179.64V59.8033H173.337H164.932V89.1803H195.398V104.918H179.64V179.41H164.932V195.148H74.5873V179.41H59.8799V150.033H74.5873V104.918H59.8799H44.1221V89.1803H74.5873V59.8033H68.2841H59.8799ZM89.2946 135.344H105.053V104.918H89.2946V135.344ZM134.467 135.344H150.225V104.918H134.467V135.344ZM89.2946 179.41H105.053V164.721H89.2946V179.41ZM119.76 179.41H134.467V164.721H128.164H119.76V179.41Z" fill="#080707"/>
</svg>

<svg xmlns="http://www.w3.org/2000/svg" fill="none" viewBox="0 0 257 256"><path fill="gray" fill-rule="evenodd" d="M74.587 68.197V89.18H44.122v15.738h30.465v45.115h30.466v-14.689h14.707V89.18h14.707V74.492h8.404-53.576V59.803H74.587V52.46zm14.708 67.147h15.758v-30.426H89.295zm90.345 44.066h-14.708v15.738-15.738zv15.738h-14.708v14.688h-14.707v14.689h45.173v-14.689h14.707v-14.688h-14.707V179.41zv-74.492zm45.172-22.033v7.344h-22.061 7.354v30.427h14.707v-22.033q.248-7.869 0-15.738M74.587 224.525v15.737zh14.708v15.737h30.465v-15.737h-14.707v-14.689H74.587z" clip-rule="evenodd"/><path fill="#FFA100" fill-rule="evenodd" d="M89.295 14.689H59.88v14.688H44.122v14.689H29.415v15.737H14.707V89.18H0v75.541h14.707v30.427h14.708v14.688h14.707v14.689H59.88v15.737h14.707v-15.737H59.88V179.41H44.122v-74.492H29.415V74.492H59.88V59.803h14.707V44.066h90.345v15.737h14.708v14.689h30.465v30.426h14.707v90.23h-14.707v14.688h-14.707v14.689h-30.466v15.737H89.295V256h75.637v-15.738h30.466v-15.737h14.707v-14.689h14.707v-14.688h15.758v-30.427h15.758v-38.819s1.051-37.77 0-36.722H240.57V59.803h-15.758V44.066h-14.707V29.377h-14.707V14.689h-30.466V0H89.295z" clip-rule="evenodd"/><path fill="#FFD775" fill-rule="evenodd" d="M105.053 59.803h29.414V44.066h-29.414zm98.749 45.115h-8.404v45.115h29.414v-45.115zm-159.68 45.115H59.88v-30.426H44.122z" clip-rule="evenodd"/><path fill="#ED9B9D" fill-rule="evenodd" d="M59.88 179.41h14.707v15.738h90.345V179.41h14.708v-14.689h-14.708v-14.688H59.88zm29.415-14.689v14.689h15.758v-14.689zm30.465 14.689h14.707v-14.689H119.76z" clip-rule="evenodd"/><path fill="#fff" fill-rule="evenodd" d="M150.225 74.492h-15.758V89.18H119.76v46.164h-14.707v14.689h59.879v14.688h14.708v-59.803h15.758V89.18h-30.466V59.803h-14.707zm-15.758 60.852h15.758v-30.426h-15.758zm60.931 44.066v15.738h14.707v-30.427h-14.707zm-90.345 45.115h14.707v15.737h45.172v-15.737h-14.707v-14.689h-45.172z" clip-rule="evenodd"/><path fill="#080707" fill-rule="evenodd" d="M74.587 52.459v7.344h14.708v14.689h60.93V59.803h14.707V44.066h-30.465v15.737h-29.414V44.066H74.587zM59.88 59.803v14.689H29.415v30.426h14.707v14.689H59.88v30.426H44.122v29.377H59.88v45.115h14.707v15.737h14.708v-15.737H74.587v-14.689h90.345v-14.688h14.708V179.41h15.758v-14.689h29.414v-14.688h-29.414v-45.115h14.707V74.492H179.64V59.803h-14.708V89.18h30.466v15.738H179.64v74.492h-14.708v15.738H74.587V179.41H59.88v-29.377h14.707v-45.115H44.122V89.18h30.465V59.803zm29.415 75.541h15.758v-30.426H89.295zm45.172 0h15.758v-30.426h-15.758zM89.295 179.41h15.758v-14.689H89.295zm30.465 0h14.707v-14.689H119.76z" clip-rule="evenodd"/></svg>
